X: 41560
T: Union Street Session
R: reel
M: 4/4
K: Dmajor
|:c|d2 AG F2 DF|EA,A,2 GFED|F2 AF GABd|AEE2 cdec|
d2 AG F2 DF|EA,A,2 GFED|F2 AF GABd|AEE2 FDD:|
|:c|d2 fd gdfa|eA A/A/A cdec|d2 fd g2 fg|aeeg (3fga ec|
d2 fd gdfa|eA A/A/A cdeg|f2 ed e2 cd|e2 dc d2 A:|

